svg/math-minus-circle.svg

<?xml version="1.0" encoding="UTF-8" standalone="no"?>
<!-- Created with Inkscape (http://www.inkscape.org/) -->

<svg
   xmlns:dc="http://purl.org/dc/elements/1.1/"
   xmlns:cc="http://creativecommons.org/ns#"
   xmlns:rdf="http://www.w3.org/1999/02/22-rdf-syntax-ns#"
   xmlns:svg="http://www.w3.org/2000/svg"
   xmlns="http://www.w3.org/2000/svg"
   xmlns:sodipodi="http://sodipodi.sourceforge.net/DTD/sodipodi-0.dtd"
   xmlns:inkscape="http://www.inkscape.org/namespaces/inkscape"
   width="448"
   height="448"
   viewBox="0 0 448 448"
   id="svg2"
   version="1.1"
   inkscape:version="0.91 r13725"
   sodipodi:docname="math-minus-circle.svg">
  <title
     id="title3339">math-minus-circle</title>
  <defs
     id="defs4">
    <pattern
       y="0"
       x="0"
       height="6"
       width="6"
       patternUnits="userSpaceOnUse"
       id="EMFhbasepattern" />
  </defs>
  <sodipodi:namedview
     id="base"
     pagecolor="#ffffff"
     bordercolor="#666666"
     borderopacity="1.0"
     inkscape:pageopacity="0.0"
     inkscape:pageshadow="2"
     inkscape:zoom="0.7"
     inkscape:cx="270.21193"
     inkscape:cy="265.76895"
     inkscape:document-units="px"
     inkscape:current-layer="layer1"
     showgrid="true"
     units="px"
     inkscape:snap-bbox="true"
     inkscape:bbox-nodes="true"
     inkscape:window-width="1264"
     inkscape:window-height="785"
     inkscape:window-x="626"
     inkscape:window-y="380"
     inkscape:window-maximized="0">
    <inkscape:grid
       type="xygrid"
       id="grid3336"
       spacingx="16"
       spacingy="16"
       empspacing="2" />
  </sodipodi:namedview>
  <metadata
     id="metadata7">
    <rdf:RDF>
      <cc:Work
         rdf:about="">
        <dc:format>image/svg+xml</dc:format>
        <dc:type
           rdf:resource="http://purl.org/dc/dcmitype/StillImage" />
        <dc:title>math-minus-circle</dc:title>
      </cc:Work>
    </rdf:RDF>
  </metadata>
  <g
     inkscape:label="Layer 1"
     inkscape:groupmode="layer"
     id="layer1"
     transform="translate(0,-604.36209)">
    <path
       style="fill-opacity:1;stroke:none;stroke-width:32;stroke-linecap:round;stroke-miterlimit:4;stroke-dasharray:none;stroke-opacity:1"
       d="M 224 0 C 99.904 0 0 99.904 0 224 C 0 348.096 99.904 448 224 448 C 348.096 448 448 348.096 448 224 C 448 99.904 348.096 0 224 0 z M 96 192 L 352 192 L 352 256 L 96 256 L 96 192 z "
       transform="translate(0,604.36209)"
       id="rect3341" />
    <text
       sodipodi:linespacing="125%"
       id="text3434"
       y="853.56891"
       x="473.24872"
       style="font-style:normal;font-variant:normal;font-weight:400;font-size:13.8125px;line-height:125%;font-family:Calibri;text-align:start;letter-spacing:0px;word-spacing:0px;text-anchor:start;fill:#000000;fill-opacity:1;stroke:none"
       xml:space="preserve"><tspan
         id="tspan3436"
         y="0"
         x="0"
         sodipodi:role="line"><tspan
           id="tspan3438"
           style="font-style:normal;font-variant:normal;font-weight:400;font-size:13.8125px;font-family:Calibri;fill:#000000"
           dy="0"
           dx="0" /></tspan></text>
  </g>
</svg>

<svg xmlns="http://www.w3.org/2000/svg" viewBox="0 0 448 448" enable-background="new 0 0 448 448"><path d="M224 0c-123.51 0-224 100.49-224 224s100.49 224 224 224 224-100.49 224-224-100.49-224-224-224zm128 256h-256v-64h256v64z"/></svg>
